src/pos-icons/call-made.svg

<svg height="24" viewBox="0 0 24 24" width="24" xmlns="http://www.w3.org/2000/svg"><path d="m9 5v2h6.59l-11.59 11.59 1.41 1.41 11.59-11.59v6.59h2v-10"/></svg>

<?xml version="1.0" encoding="UTF-8"?><!DOCTYPE svg PUBLIC "-//W3C//DTD SVG 1.1//EN" "http://www.w3.org/Graphics/SVG/1.1/DTD/svg11.dtd"><svg xmlns="http://www.w3.org/2000/svg" xmlns:xlink="http://www.w3.org/1999/xlink" version="1.1" id="mdi-call-made" width="24" height="24" viewBox="0 0 24 24"><path d="M9,5V7H15.59L4,18.59L5.41,20L17,8.41V15H19V5" /></svg>
